X:6232
T:St Andrews
O:england
R:Reel
M:4/4
S:Vincent Blin, France (fiddle)
D:Concert on Clare FM
C:Sean Ryan, Offaly (fiddle)
K:F
F2CF AFFG | Acde fcAF | G2DG BGGf | efge fcBG | F2CF AFFG |
Acde fdcA | B2GB A2FA | GCEG F4 :: f2cf acfa | cfag fedc |
g2dg bdgb | dgba gbag | f2cf acfa | cfag fedc | B2GB A2FA | GCEG F4 :|


